X: 63
T:Game of Love (#259), The
M:4/4
L:1/8
S:Sergt. James O'Neill manuscripts
R:Reel
K:G
dc||BEEF GBdB|AFDE FGAc|BEEF GABc|dBAc BE E2|
BEEF GBdB|AFDE FGAc|BEEF GABc|dBAc BE E2||
Bdef gfge|defg afed|Bdef gfed|BdAc BE E2|
Bdef gfge|defg afdf|g2 ba gfed|BdAc BE E2||

